packages/ffe-icons/icons/filled/sm/wysiwyg.svg

<svg xmlns="http://www.w3.org/2000/svg" height="20" viewBox="0 -960 960 960" width="20"><path d="M228.309-164.001q-26.527 0-45.417-18.891-18.891-18.89-18.891-45.417v-503.382q0-26.527 18.891-45.417 18.89-18.891 45.417-18.891h503.382q26.527 0 45.417 18.891 18.891 18.89 18.891 45.417v503.382q0 26.527-18.891 45.417-18.89 18.891-45.417 18.891H228.309Zm0-51.999h503.382q5.385 0 8.847-3.462 3.462-3.462 3.462-8.847V-672H216v443.691q0 5.385 3.462 8.847 3.462 3.462 8.847 3.462Zm85.69-275.001q-11.049 0-18.524-7.418Q288-505.837 288-516.803q0-10.966 7.475-18.581t18.524-7.615h332.002q11.049 0 18.524 7.418Q672-528.163 672-517.197q0 10.966-7.475 18.581t-18.524 7.615H313.999Zm0 145q-11.049 0-18.524-7.418Q288-360.837 288-371.803q0-10.966 7.475-18.581t18.524-7.615h188.002q11.049 0 18.524 7.418Q528-383.163 528-372.197q0 10.966-7.475 18.581t-18.524 7.615H313.999Z"/></svg>

<svg xmlns="http://www.w3.org/2000/svg" height="20" viewBox="0 -960 960 960" width="20"><path d="M228.31-164q-26.53 0-45.42-18.89T164-228.31v-503.38q0-26.53 18.89-45.42T228.31-796h503.38q26.53 0 45.42 18.89T796-731.69v503.38q0 26.53-18.89 45.42T731.69-164H228.31Zm0-52h503.38q5.39 0 8.85-3.46t3.46-8.85V-672H216v443.69q0 5.39 3.46 8.85t8.85 3.46ZM314-491q-11.05 0-18.53-7.42-7.47-7.42-7.47-18.38 0-10.97 7.47-18.58Q302.95-543 314-543h332q11.05 0 18.53 7.42 7.47 7.42 7.47 18.38 0 10.97-7.47 18.58Q657.05-491 646-491H314Zm0 145q-11.05 0-18.53-7.42-7.47-7.42-7.47-18.38 0-10.97 7.47-18.58Q302.95-398 314-398h188q11.05 0 18.53 7.42 7.47 7.42 7.47 18.38 0 10.97-7.47 18.58Q513.05-346 502-346H314Z"/></svg>
